svg/u1f404.svg

<svg viewBox="0 0 128 128" xmlns="http://www.w3.org/2000/svg">
  <path d="M30.98,25c-0.28-0.14,1.69-2.6,2.39-3.8c0.7-1.2,1.27-3.1,2.75-2.96s1.62,2.75,1.55,3.87 c-0.14,2.25-1.41,4.79-1.41,4.79L30.98,25z" fill="#FFBD16"/>
  <path d="M90.18,73.92l-41.91,7.72c0,0,0.45,2.7,1.22,5.73s3.66,11.68,3.52,15.27 c-0.14,3.59-2.89,10.84-1.9,12.39s4.58,1.48,6.69,0.99s4.32-2.02,4.6-2.93s-0.38-9.03-0.31-10.93s0.49-5.56,1.2-8.38 c0.7-2.82,1.13-7.95,1.13-7.95l10.21-5.21c0,0,7.11,5.42,9.08,8.31s3.45,9.08,3.38,11.61c-0.07,2.53-1.74,9.79-0.66,11.1 c1.34,1.62,4.56,1.83,6.66,1.64c2.58-0.23,4.83-1.64,4.83-1.64V81.31L90.18,73.92z" fill="#ADADB8"/>
  <path d="M117.07,81.59c-1.69-0.07-3.23,6-2.75,8.66c0.7,3.87,3.52,5.21,4.43,6.48 c0.92,1.27,1.45,2.84,2.53,3.31c1.13,0.49,2.44-4.92,2.32-9.08C123.47,85.81,119.35,81.69,117.07,81.59z" fill="#4D4D4D"/>
  <path d="M84.27,81.87l-5.42,5.07c0,0,2.49,2.8,4.5,4.22c2.39,1.69,4.65,1.97,4.65,1.97s-0.49,4.01,1.9,4.36 c2.23,0.33,2.04-4.08,2.39-4.15c0.35-0.07,1.06,3.24,2.96,3.17s5.42-7.46,5.42-7.46L96.3,78L84.27,81.87z" fill="#FEA8A7"/>
  <path d="M44.17,29.08c0.14-0.35-1.41-1.69-2.89-2.67c-1.48-0.99-4.36-1.34-4.36-1.34l-12.88,6.26l-7.81,7.56 c0,0-3.28,2.3-4.69,3.28c-1.41,0.99-3.73,2.56-4.93,3.33s-2.18,1.2-2.39,2.11s4.34,8.28,4.34,8.28l2.39,1.76l5.7-0.49 c0,0,7.6,3.52,11.12,4.79c3.52,1.27,11.54,3.87,11.54,3.87s1.48,4.01,2.46,6.26c0.99,2.25,2.98,5.37,2.98,5.37l20.67,9.97 c0,0,1.97,7.81,2.32,9.85s0.77,7.74,0.63,10.49c-0.14,2.75-0.72,7.27-0.63,8.45c0.09,1.31,1.28,2.95,3.03,3.24 c2.89,0.47,6.34-0.56,7.81-2.6s-0.35-7.67-0.56-10c-0.21-2.32-1.21-7.63-0.49-9.36c1.2-2.89,2.39-6.55,2.6-7.81 c0.21-1.27,0.7-3.31,0.7-3.31s3.8,0.07,6.9-0.35c3.1-0.42,6.19-1.06,6.19-1.06s0.99,4.15,1.13,6.69c0.14,2.53,0.63,7.53,0.56,11.47 s-1.41,8.73-0.99,9.71c0.42,0.99,1.27,2.72,5.21,2.18c4.17-0.57,5.16-2.75,5.58-3.73s0.96-9.71,1.53-11.97 c0.56-2.25,2.39-11.12,3.38-14.15c0.99-3.03,4.65-14.36,4.65-14.36s0,4.72,0.28,6.62s0.84,5.98,1.97,5.84 c1.13-0.14,0.77-3.52,0.84-5.77c0.07-2.25-0.07-5.42,0.77-8.09c0.84-2.67,1.63-6.9,1.69-7.39c0.52-3.99-0.07-8.66-0.14-9.43 s-5.7-4.43-5.7-4.43s0.14-2.93-0.21-3.36c-0.35-0.42-5.49-4.32-7.09-4.65c-2.67-0.55-5.37,0.4-5.37,0.4L87.1,51.6L59.93,40.48 c0,0-2.67-0.07-3.52-0.07c-0.84,0-4.86-1.69-4.86-1.69l-4.65-4.29L44.17,29.08z" fill="#DFDFDF"/>
  <path d="M107.14,60.83c-0.58-5.25,1.62-10.14,2.96-12.25s2.84-4.06,3.21-4.62c0.35-0.52,7.23,5.58,7.04,8.45 c-0.03,0.5-0.94,6.48-1.88,9.24c-0.76,2.25-2.65,7.81-3.28,8.02C114.56,69.88,107.85,67.16,107.14,60.83z" fill="#4D4D4D"/>
  <path d="M106.93,67.79c-1.88-0.05-3.31,1.83-5,3.73c-1.69,1.9-3.03,3.38-2.75,5.28c0.28,1.9,2.39,5,6.26,4.58 c3.87-0.42,4.93-4.36,5-6.76C110.52,72.23,109.75,67.86,106.93,67.79z" fill="#4D4D4D"/>
  <path d="M81.83,40.15c-9.64,0.14-21,0.09-22.2,0.38c-0.7,0.16,1.76,8.61,5.91,12.98s17.07,19.94,26.61,15.84 c6.55-2.82,5.28-12.04,6.34-16.82c1.06-4.79,5.87-12.27,5.87-12.27S89.64,40.04,81.83,40.15z" fill="#4D4D4D"/>
  <path d="M60.33,25.42c0.84,1.15-3.66,7.67-5.14,9.36s-4.43,3.66-4.43,3.66s2.49,0.94,2.91,1.29 c0.42,0.35,3.82,6.59,3.85,8.35c0.05,3.05-6.48,10.84-9.5,10.77c-3.03-0.07-10.35-4.93-11.33-6.26c-0.99-1.34-2.25-13.02-0.77-16.82 c1.48-3.8,4.36-6.76,5.21-6.9s1.9,0.14,1.9,0.14s3.38-2.46,8.45-3.38S59.77,24.65,60.33,25.42z" fill="#4D4D4D"/>
  <path d="M44.99,36.82c-0.49-0.56,0.71-4.59,4.01-6.97c3.52-2.53,7.25-2.46,7.88-1.97 c0.7,0.54-1.45,4.52-4.15,6.55C49.35,36.96,45.48,37.39,44.99,36.82z" fill="#FFD1B3"/>
  <path d="M16.41,44.78c0,0,4.22-8.45,7.53-10.84s6.73-3.28,9.64-4.29c4.43-1.55,6.12-4.86,6.12-4.86 s-5.91-1.34-10.84,0.14c-3.63,1.09-7.32,3.45-8.87,5.35c-1.55,1.9-2.56,5.32-3.66,7.11c-1.34,2.18-4.55,4.58-4.55,4.58 s1.1,0.23,2.39,1.08C14.72,43.4,16.41,44.78,16.41,44.78z" fill="#4D4D4D"/>
  <path d="M37.53,26.41c0.16,0.57,0.61,1.82,1.62,2.53c1.19,0.85,3.04,1.09,4.22,0.63 c2.18-0.84,2.93-5.7,3.1-7.18c0.28-2.53-0.14-4.65-1.48-4.43c-0.91,0.14-3.59,3.49-4.36,4.08C39.43,22.96,36.96,24.36,37.53,26.41z" fill="#FFBD16"/>
  <path d="M26.5,37.95c0.52-0.23,1.27-1.88,2.77-1.74s2.68,1.9,2.21,3.89c-0.47,1.97-1.7,2.57-3.05,2.3 c-1.17-0.23-1.74-1.55-1.97-1.74c-0.23-0.19-2.58-0.42-2.53-1.41C23.97,38.28,26.5,37.95,26.5,37.95z" fill="#1B1B1B"/>
  <path d="M7.31,55.59c-0.42,0.52,0.43,2.18,2.25,2.82c2.23,0.77,3.73,0.73,5.37,0.31 c1.32-0.34,2.56-1.15,2.56-1.15s2.64-1.01,1.48-2.37c-1.6-1.88-3.59,1.1-3.59,1.1s-1.34,0.82-3.78,0.49 c-1.9-0.26-3.17-1.95-3.17-1.95L7.31,55.59z" fill="#4D4D4D"/>
  <path d="M12.98,50.2c0.19-0.97,0.49-1.66-2.11-2.44c-2.67-0.8-5.21-1.22-6.29-0.7 c-0.55,0.26-1.22,3.1,0.28,5.96c0.85,1.62,2.49,4.41,3.28,4.08s2.23-2.75,2.67-3.33C11.44,52.97,12.66,51.84,12.98,50.2z" fill="#FCA4A7"/>
  <path d="M11.34,49.73c-0.04,1.36-2.11,2.77-4.55,2.06s-2.86-2.49-2.72-3.52c0.14-1.03,2.02-0.05,3.24,0.19 C8.53,48.7,11.39,48.27,11.34,49.73z" fill="#FFD3AF"/>
  <path d="M70.19,69.53c-2.2,0.5-4.32,4.27-4.08,7.41c0.21,2.77,2.51,6.18,6.19,6.57 c3.52,0.38,6.1-2.86,6.01-5.77c-0.07-2.16-2.46-3.32-3.8-4.93C72.35,70.23,71.64,69.2,70.19,69.53z" fill="#4D4D4D"/>
  <path d="M45.6,68.97c-1.13,0.47-1.5,2.39-1.69,3.57s0,3.43,0.56,4.6c0.56,1.17,3.71,6.24,4.6,6.95 c0.89,0.7,4.93,2.44,9.48,3.1s6.95,0.42,6.95,0.42s-1.27-2.58-2.25-4.97c-0.99-2.39-2.39-6.48-4.27-8.68S47.64,68.12,45.6,68.97z" fill="#4D4D4D"/>
</svg>

<svg viewBox="0 0 128 128" xmlns="http://www.w3.org/2000/svg">
  <defs/>
  <path d="M30.98,25 C30.7,24.86 32.67,22.4 33.37,21.2 C34.07,20 34.64,18.1 36.12,18.24 C37.6,18.38 37.74,20.99 37.67,22.11 C37.53,24.36 36.26,26.9 36.26,26.9 L30.98,25 Z" fill="#FFBD16"/>
  <path d="M90.18,73.92 L48.27,81.64 C48.27,81.64 48.72,84.34 49.49,87.37 C50.26,90.4 53.15,99.05 53.01,102.64 C52.87,106.23 50.12,113.48 51.11,115.03 C52.1,116.58 55.69,116.51 57.8,116.02 C59.91,115.53 62.12,114 62.4,113.09 C62.68,112.18 62.02,104.06 62.09,102.16 C62.16,100.26 62.58,96.6 63.29,93.78 C63.99,90.96 64.42,85.83 64.42,85.83 L74.63,80.62 C74.63,80.62 81.74,86.04 83.71,88.93 C85.68,91.82 87.16,98.01 87.09,100.54 C87.02,103.07 85.35,110.33 86.43,111.64 C87.77,113.26 90.99,113.47 93.09,113.28 C95.67,113.05 97.92,111.64 97.92,111.64 L97.92,81.31 L90.18,73.92 Z" fill="#ADADB8"/>
  <path d="M117.07,81.59 C115.38,81.52 113.84,87.59 114.32,90.25 C115.02,94.12 117.84,95.46 118.75,96.73 C119.67,98 120.2,99.57 121.28,100.04 C122.41,100.53 123.72,95.12 123.6,90.96 C123.47,85.81 119.35,81.69 117.07,81.59 Z" fill="#4D4D4D"/>
  <path d="M84.27,81.87 L78.85,86.94 C78.85,86.94 81.34,89.74 83.35,91.16 C85.74,92.85 88,93.13 88,93.13 C88,93.13 87.51,97.14 89.9,97.49 C92.13,97.82 91.94,93.41 92.29,93.34 C92.64,93.27 93.35,96.58 95.25,96.51 C97.15,96.44 100.67,89.05 100.67,89.05 L96.3,78 L84.27,81.87 Z" fill="#FEA8A7"/>
  <path d="M44.17,29.08 C44.31,28.73 42.76,27.39 41.28,26.41 C39.8,25.42 36.92,25.07 36.92,25.07 L24.04,31.33 L16.23,38.89 C16.23,38.89 12.95,41.19 11.54,42.17 C10.13,43.16 7.81,44.73 6.61,45.5 C5.41,46.27 4.43,46.7 4.22,47.61 C4.01,48.52 8.56,55.89 8.56,55.89 L10.95,57.65 L16.65,57.16 C16.65,57.16 24.25,60.68 27.77,61.95 C31.29,63.22 39.31,65.82 39.31,65.82 C39.31,65.82 40.79,69.83 41.77,72.08 C42.76,74.33 44.75,77.45 44.75,77.45 L65.42,87.42 C65.42,87.42 67.39,95.23 67.74,97.27 C68.09,99.31 68.51,105.01 68.37,107.76 C68.23,110.51 67.65,115.03 67.74,116.21 C67.83,117.52 69.02,119.16 70.77,119.45 C73.66,119.92 77.11,118.89 78.58,116.85 C80.05,114.81 78.23,109.18 78.02,106.85 C77.81,104.53 76.81,99.22 77.53,97.49 C78.73,94.6 79.92,90.94 80.13,89.68 C80.34,88.41 80.83,86.37 80.83,86.37 C80.83,86.37 84.63,86.44 87.73,86.02 C90.83,85.6 93.92,84.96 93.92,84.96 C93.92,84.96 94.91,89.11 95.05,91.65 C95.19,94.18 95.68,99.18 95.61,103.12 C95.54,107.06 94.2,111.85 94.62,112.83 C95.04,113.82 95.89,115.55 99.83,115.01 C104,114.44 104.99,112.26 105.41,111.28 C105.83,110.3 106.37,101.57 106.94,99.31 C107.5,97.06 109.33,88.19 110.32,85.16 C111.31,82.13 114.97,70.8 114.97,70.8 C114.97,70.8 114.97,75.52 115.25,77.42 C115.53,79.32 116.09,83.4 117.22,83.26 C118.35,83.12 117.99,79.74 118.06,77.49 C118.13,75.24 117.99,72.07 118.83,69.4 C119.67,66.73 120.46,62.5 120.52,62.01 C121.04,58.02 120.45,53.35 120.38,52.58 C120.31,51.81 114.68,48.15 114.68,48.15 C114.68,48.15 114.82,45.22 114.47,44.79 C114.12,44.37 108.98,40.47 107.38,40.14 C104.71,39.59 102.01,40.54 102.01,40.54 L87.1,51.6 L59.93,40.48 C59.93,40.48 57.26,40.41 56.41,40.41 C55.57,40.41 51.55,38.72 51.55,38.72 L46.9,34.43 L44.17,29.08 Z" fill="#DFDFDF"/>
  <path d="M107.14,60.83 C106.56,55.58 108.76,50.69 110.1,48.58 C111.44,46.47 112.94,44.52 113.31,43.96 C113.66,43.44 120.54,49.54 120.35,52.41 C120.32,52.91 119.41,58.89 118.47,61.65 C117.71,63.9 115.82,69.46 115.19,69.67 C114.56,69.88 107.85,67.16 107.14,60.83 Z" fill="#4D4D4D"/>
  <path d="M106.93,67.79 C105.05,67.74 103.62,69.62 101.93,71.52 C100.24,73.42 98.9,74.9 99.18,76.8 C99.46,78.7 101.57,81.8 105.44,81.38 C109.31,80.96 110.37,77.02 110.44,74.62 C110.52,72.23 109.75,67.86 106.93,67.79 Z" fill="#4D4D4D"/>
  <path d="M81.83,40.15 C72.19,40.29 60.83,40.24 59.63,40.53 C58.93,40.69 61.39,49.14 65.54,53.51 C69.69,57.88 82.61,73.45 92.15,69.35 C98.7,66.53 97.43,57.31 98.49,52.53 C99.55,47.74 104.36,40.26 104.36,40.26 C104.36,40.26 89.64,40.04 81.83,40.15 Z" fill="#4D4D4D"/>
  <path d="M60.33,25.42 C61.17,26.57 56.67,33.09 55.19,34.78 C53.71,36.47 50.76,38.44 50.76,38.44 C50.76,38.44 53.25,39.38 53.67,39.73 C54.09,40.08 57.49,46.32 57.52,48.08 C57.57,51.13 51.04,58.92 48.02,58.85 C44.99,58.78 37.67,53.92 36.69,52.59 C35.7,51.25 34.44,39.57 35.92,35.77 C37.4,31.97 40.28,29.01 41.13,28.87 C41.98,28.73 43.03,29.01 43.03,29.01 C43.03,29.01 46.41,26.55 51.48,25.63 C56.55,24.71 59.77,24.65 60.33,25.42 Z" fill="#4D4D4D"/>
  <path d="M44.99,36.82 C44.5,36.26 45.7,32.23 49,29.85 C52.52,27.32 56.25,27.39 56.88,27.88 C57.58,28.42 55.43,32.4 52.73,34.43 C49.35,36.96 45.48,37.39 44.99,36.82 Z" fill="#FFD1B3"/>
  <path d="M16.41,44.78 C16.41,44.78 20.63,36.33 23.94,33.94 C27.25,31.55 30.67,30.66 33.58,29.65 C38.01,28.1 39.7,24.79 39.7,24.79 C39.7,24.79 33.79,23.45 28.86,24.93 C25.23,26.02 21.54,28.38 19.99,30.28 C18.44,32.18 17.43,35.6 16.33,37.39 C14.99,39.57 11.78,41.97 11.78,41.97 C11.78,41.97 12.88,42.2 14.17,43.05 C14.72,43.4 16.41,44.78 16.41,44.78 Z" fill="#4D4D4D"/>
  <path d="M37.53,26.41 C37.69,26.98 38.14,28.23 39.15,28.94 C40.34,29.79 42.19,30.03 43.37,29.57 C45.55,28.73 46.3,23.87 46.47,22.39 C46.75,19.86 46.33,17.74 44.99,17.96 C44.08,18.1 41.4,21.45 40.63,22.04 C39.43,22.96 36.96,24.36 37.53,26.41 Z" fill="#FFBD16"/>
  <path d="M26.5,37.95 C27.02,37.72 27.77,36.07 29.27,36.21 C30.77,36.35 31.95,38.11 31.48,40.1 C31.01,42.07 29.78,42.67 28.43,42.4 C27.26,42.17 26.69,40.85 26.46,40.66 C26.23,40.47 23.88,40.24 23.93,39.25 C23.97,38.28 26.5,37.95 26.5,37.95 Z" fill="#1B1B1B"/>
  <path d="M7.31,55.59 C6.89,56.11 7.74,57.77 9.56,58.41 C11.79,59.18 13.29,59.14 14.93,58.72 C16.25,58.38 17.49,57.57 17.49,57.57 C17.49,57.57 20.13,56.56 18.97,55.2 C17.37,53.32 15.38,56.3 15.38,56.3 C15.38,56.3 14.04,57.12 11.6,56.79 C9.7,56.53 8.43,54.84 8.43,54.84 L7.31,55.59 Z" fill="#4D4D4D"/>
  <path d="M12.98,50.2 C13.17,49.23 13.47,48.54 10.87,47.76 C8.2,46.96 5.66,46.54 4.58,47.06 C4.03,47.32 3.36,50.16 4.86,53.02 C5.71,54.64 7.35,57.43 8.14,57.1 C8.93,56.77 10.37,54.35 10.81,53.77 C11.44,52.97 12.66,51.84 12.98,50.2 Z" fill="#FCA4A7"/>
  <path d="M11.34,49.73 C11.3,51.09 9.23,52.5 6.79,51.79 C4.35,51.08 3.93,49.3 4.07,48.27 C4.21,47.24 6.09,48.22 7.31,48.46 C8.53,48.7 11.39,48.27 11.34,49.73 Z" fill="#FFD3AF"/>
  <path d="M70.19,69.53 C67.99,70.03 65.87,73.8 66.11,76.94 C66.32,79.71 68.62,83.12 72.3,83.51 C75.82,83.89 78.4,80.65 78.31,77.74 C78.24,75.58 75.85,74.42 74.51,72.81 C72.35,70.23 71.64,69.2 70.19,69.53 Z" fill="#4D4D4D"/>
  <path d="M45.6,68.97 C44.47,69.44 44.1,71.36 43.91,72.54 C43.72,73.72 43.91,75.97 44.47,77.14 C45.03,78.31 48.18,83.38 49.07,84.09 C49.96,84.79 54,86.53 58.55,87.19 C63.1,87.85 65.5,87.61 65.5,87.61 C65.5,87.61 64.23,85.03 63.25,82.64 C62.26,80.25 60.86,76.16 58.98,73.96 C57.1,71.76 47.64,68.12 45.6,68.97 Z" fill="#4D4D4D"/>
</svg>
